brandFactory_export/3.Masa/Bacteria_3Masa.svg

<?xml version="1.0" encoding="UTF-8"?>
<svg width="24px" height="24px" viewBox="0 0 24 24" version="1.1" xmlns="http://www.w3.org/2000/svg" xmlns:xlink="http://www.w3.org/1999/xlink">
    <title>3.Masa/Bacteria_3Masa</title>
    <g id="Symbols" stroke="none" stroke-width="1" fill="none" fill-rule="evenodd">
        <g id="3.Masa/Bacteria_3Masa" fill="#5CB615" fill-rule="nonzero">
            <path d="M13.7478992,11.112605 L13.5226891,11.112605 C13.0386555,11.112605 11.1966387,10.9243697 11.1966387,8.62857143 C11.1966387,6.34285714 13.0184874,6.17478992 13.512605,6.16470588 L13.7378151,6.16470588 C14.2117647,6.17478992 16.0739496,6.37310924 16.0739496,8.6487395 C16.0739496,10.9243697 14.2117647,11.102521 13.7478992,11.112605 M14.2521008,16.6689076 C14.2016807,16.6789916 14.1445378,16.6890756 14.0840336,16.6991597 C13.9966387,16.7193277 13.8386555,16.7394958 13.6605042,16.7394958 C13.0789916,16.7394958 12.1714286,16.5142857 11.8957983,15.1630252 C11.5226891,13.3983193 12.9008403,12.9747899 13.2773109,12.897479 C13.3344538,12.887395 13.394958,12.8672269 13.4521008,12.8605042 C13.5294118,12.8504202 13.6773109,12.8302521 13.8554622,12.8302521 C14.4369748,12.8302521 15.3647059,13.0453782 15.6504202,14.3966387 C16.0134454,16.1478992 14.605042,16.5781513 14.2521008,16.6689076 M7.91260504,12.1378151 L7.78487395,12.1378151 C7.49915966,12.1277311 6.43361345,12.0302521 6.43361345,10.6890756 C6.43361345,9.35798319 7.48907563,9.2605042 7.77478992,9.2605042 L7.90252101,9.2605042 C8.18823529,9.27058824 9.26386555,9.37815126 9.26386555,10.6991597 C9.26386555,12.0268908 8.18151261,12.1277311 7.91260504,12.1378151 M22.8840336,11.0722689 L20.2016807,11.0722689 C20.0739496,8.88403361 19.394958,7.31764706 18.4571429,6.20504202 L20.1613445,4.50084034 C20.4571429,4.21512605 20.4571429,3.74453782 20.1613445,3.45546218 C19.8756303,3.1697479 19.4117647,3.1697479 19.1159664,3.45546218 L17.3915966,5.17983193 C15.687395,3.83865546 13.6268908,3.53613445 12.5512605,3.46554622 L12.5512605,0.739495798 C12.5512605,0.336134454 12.2151261,0 11.8117647,0 C11.3983193,0 11.0722689,0.336134454 11.0722689,0.739495798 L11.0722689,3.4487395 C9.98655462,3.49915966 7.89915966,3.78487395 6.18487395,5.14285714 L4.50084034,3.45882353 C4.21512605,3.17310924 3.74453782,3.17310924 3.45882353,3.45882353 C3.16302521,3.74453782 3.16302521,4.21848739 3.45882353,4.50420168 L5.15294118,6.19831933 C4.25546218,7.3210084 3.60672269,8.88739496 3.49915966,11.0756303 L0.739495798,11.0756303 C0.32605042,11.0756303 0,11.4016807 0,11.8151261 C0,12.2184874 0.32605042,12.5546218 0.739495798,12.5546218 L3.49915966,12.5546218 C3.62689076,14.7428571 4.2789916,16.2991597 5.17310924,17.4117647 L3.45882353,19.1159664 C3.16302521,19.4117647 3.16302521,19.8756303 3.45882353,20.1714286 C3.59663866,20.3092437 3.79159664,20.3865546 3.97983193,20.3865546 C4.16806723,20.3865546 4.35294118,20.3092437 4.50084034,20.1714286 L6.22521008,18.4470588 C7.91932773,19.805042 9.9697479,20.1109244 11.0722689,20.1714286 L11.0722689,22.8907563 C11.0722689,23.2941176 11.3983193,23.6302521 11.8117647,23.6302521 C12.2151261,23.6302521 12.5512605,23.2941176 12.5512605,22.8907563 L12.5512605,20.1714286 C13.6067227,20.1210084 15.6941176,19.8252101 17.4184874,18.4773109 L19.112605,20.1714286 C19.2605042,20.3092437 19.4487395,20.3865546 19.6336134,20.3865546 C19.8319328,20.3865546 20.0168067,20.3092437 20.1546218,20.1714286 C20.4504202,19.8756303 20.4504202,19.4117647 20.1546218,19.1159664 L18.4806723,17.4420168 C19.405042,16.3294118 20.0773109,14.7630252 20.194958,12.5546218 L22.8773109,12.5546218 C23.2907563,12.5546218 23.6169088,12.2184874 23.6169088,11.8151261 C23.6235294,11.3983193 23.297479,11.0722689 22.8840336,11.0722689" id="Bacteria_3Masa"></path>
        </g>
    </g>
</svg>

<svg width="24" height="24" viewBox="0 0 24 24" xmlns="http://www.w3.org/2000/svg"><path d="M13.748 11.113h-.225c-.484 0-2.326-.189-2.326-2.484 0-2.286 1.821-2.454 2.316-2.464h.225c.474.01 2.336.208 2.336 2.484 0 2.275-1.862 2.454-2.326 2.464m.504 5.556c-.05.01-.107.02-.168.03-.087.02-.245.04-.423.04-.582 0-1.49-.225-1.765-1.576-.373-1.765 1.005-2.188 1.381-2.266.057-.01.118-.03.175-.036.077-.01.225-.03.403-.03.582 0 1.51.214 1.795 1.566.363 1.75-1.045 2.181-1.398 2.272m-6.34-4.531h-.127c-.286-.01-1.351-.108-1.351-1.449 0-1.331 1.055-1.428 1.34-1.428h.129c.285.01 1.36.117 1.36 1.438 0 1.328-1.081 1.429-1.35 1.439m14.971-1.066h-2.682c-.128-2.188-.807-3.754-1.745-4.867l1.704-1.704a.727.727 0 000-1.046.745.745 0 00-1.045 0L17.392 5.18c-1.705-1.341-3.765-1.644-4.84-1.714V.739a.746.746 0 00-.74-.739.74.74 0 00-.74.74v2.709c-1.085.05-3.173.336-4.887 1.694L4.5 3.459a.74.74 0 00-1.042 0 .727.727 0 000 1.045l1.694 1.694c-.898 1.123-1.546 2.69-1.654 4.878H.74a.733.733 0 00-.739.74c0 .402.326.739.74.739H3.5c.127 2.188.779 3.744 1.673 4.857L3.46 19.116a.739.739 0 000 1.055.75.75 0 00.52.216.768.768 0 00.522-.216l1.724-1.724c1.694 1.358 3.745 1.664 4.847 1.724v2.72c0 .403.326.74.74.74.403 0 .74-.337.74-.74v-2.72c1.055-.05 3.142-.346 4.866-1.694l1.695 1.694a.775.775 0 00.52.216.732.732 0 00.522-.216.739.739 0 000-1.055l-1.674-1.674c.924-1.113 1.596-2.679 1.714-4.887h2.682a.74.74 0 00.74-.74.724.724 0 00-.733-.743" fill="#5CB615" fill-rule="nonzero"/></svg>
